X:1
T:The Granite Mill Fire
M:6/8
L:1/8
K:D
 F| D2D/2-E/2 F2 D| B,2 A, D2 E| FFA, D2 E| F3 z2 F/2G/2| A2 A A2 F|\
 G2 F D2 E| F2 G F2 E| D3||
